X:1
T: The Cardiologist
C:Bruce Shawyer
R:Jig
Q:180
K:G
M:6/8
L:1/16
|:D2|G2A2B2 g4d2|c2B2A2 G4G2|A2c2e2 G2B2d2|B2A2G2 D4D2|
G2A2B2 g4d2|c2B2A2 G4G2|A2c2A2 B2d2g2|d2B2G2 G4:|
|:G2|d2c2B2 B2c2d2|F2G2A2 c4c2|e2c2A2 F2A2c2|B2A2G2 D4G2|
d2c2B2 B2c2d2|F2G2A2 c4c2|e2c2A2 e2c2A2|d2B2G2 G4:|
